tools/download-figma-icons/icons/solid/city.svg

<svg width="24" height="24" viewBox="0 0 24 24" fill="none" xmlns="http://www.w3.org/2000/svg">
<path fill-rule="evenodd" clip-rule="evenodd" d="M7.5 10.5V12.75V22.5H16.5V10.5H7.5ZM4.5 20.25V19.5C4.5 19.0875 4.1625 18.75 3.75 18.75C3.3375 18.75 3 19.0875 3 19.5V20.25C3 20.6625 3.3375 21 3.75 21C4.1625 21 4.5 20.6625 4.5 20.25ZM3 16.5C3 16.9125 3.3375 17.25 3.75 17.25C4.1625 17.25 4.5 16.9125 4.5 16.5V15.75C4.5 15.3375 4.1625 15 3.75 15C3.3375 15 3 15.3375 3 15.75V16.5ZM17.25 7.5V9H6.75V7.5H17.25ZM19.5 9H21.75C22.1625 9 22.5 8.6625 22.5 8.25C22.5 7.8375 22.1625 7.5 21.75 7.5H19.5C19.0875 7.5 18.75 7.8375 18.75 8.25C18.75 8.6625 19.0875 9 19.5 9ZM18.75 12.75H21.75C22.1625 12.75 22.5 12.4125 22.5 12C22.5 11.5875 22.1625 11.25 21.75 11.25H18.75C18.3375 11.25 18 11.5875 18 12C18 12.4125 18.3375 12.75 18.75 12.75ZM18.75 16.5H21.75C22.1625 16.5 22.5 16.1625 22.5 15.75C22.5 15.3375 22.1625 15 21.75 15H18.75C18.3375 15 18 15.3375 18 15.75C18 16.1625 18.3375 16.5 18.75 16.5ZM18.75 20.3096H21.75C22.1625 20.3096 22.5 19.9796 22.5 19.5596C22.5 19.1471 22.1625 18.8096 21.75 18.8096H18.75C18.3375 18.8096 18 19.1471 18 19.5596C18 19.9796 18.3375 20.3096 18.75 20.3096ZM21.75 3.75H13.5C13.0875 3.75 12.75 4.0875 12.75 4.5C12.75 4.9125 13.0875 5.25 13.5 5.25H18.75H21.75C22.1625 5.25 22.5 4.9125 22.5 4.5C22.5 4.0875 22.1625 3.75 21.75 3.75ZM12 0H23.25C23.6625 0 24 0.3375 24 0.75V23.25C24 23.4525 23.9175 23.64 23.7825 23.7825C23.64 23.925 23.4525 24 23.25 24H17.25H6.75H0.75C0.3375 24 0 23.6625 0 23.25V12.75C0 12.3375 0.3375 12 0.75 12H6V10.5C5.5875 10.5 5.25 10.1625 5.25 9.75V6.75C5.25 6.3375 5.5875 6 6 6H11.25V0.75C11.25 0.3375 11.5875 0 12 0ZM9 13.5C9 13.0852 9.33525 12.75 9.75 12.75H14.25C14.6648 12.75 15 13.0852 15 13.5C15 13.9148 14.6648 14.25 14.25 14.25H9.75C9.33525 14.25 9 13.9148 9 13.5ZM9.75 15.75C9.33525 15.75 9 16.0853 9 16.5C9 16.9147 9.33525 17.25 9.75 17.25H14.25C14.6648 17.25 15 16.9147 15 16.5C15 16.0853 14.6648 15.75 14.25 15.75H9.75ZM9 19.5C9 19.0853 9.33525 18.75 9.75 18.75H14.25C14.6648 18.75 15 19.0853 15 19.5C15 19.9147 14.6648 20.25 14.25 20.25H9.75C9.33525 20.25 9 19.9147 9 19.5Z" fill="black"/>
</svg>

<svg xmlns="http://www.w3.org/2000/svg" width="24" height="24" fill="none" viewBox="0 0 24 24"><path fill="currentColor" fill-rule="evenodd" d="M7.5 10.5v12h9v-12zm-3 9.75v-.75a.75.75 0 0 0-.75-.75.75.75 0 0 0-.75.75v.75c0 .413.337.75.75.75.412 0 .75-.337.75-.75M3 16.5c0 .413.337.75.75.75.412 0 .75-.337.75-.75v-.75a.75.75 0 0 0-.75-.75.75.75 0 0 0-.75.75zm14.25-9V9H6.75V7.5zM19.5 9h2.25c.413 0 .75-.338.75-.75a.75.75 0 0 0-.75-.75H19.5a.75.75 0 0 0-.75.75c0 .412.337.75.75.75m-.75 3.75h3c.413 0 .75-.338.75-.75a.75.75 0 0 0-.75-.75h-3A.75.75 0 0 0 18 12c0 .412.337.75.75.75m0 3.75h3c.413 0 .75-.337.75-.75a.75.75 0 0 0-.75-.75h-3a.75.75 0 0 0-.75.75c0 .413.337.75.75.75m0 3.81h3c.413 0 .75-.33.75-.75a.75.75 0 0 0-.75-.75h-3a.75.75 0 0 0-.75.75c0 .42.337.75.75.75m3-16.56H13.5a.75.75 0 0 0-.75.75c0 .412.338.75.75.75h8.25c.413 0 .75-.338.75-.75a.75.75 0 0 0-.75-.75M12 0h11.25c.413 0 .75.338.75.75v22.5a.74.74 0 0 1-.75.75H.75a.75.75 0 0 1-.75-.75v-10.5c0-.412.338-.75.75-.75H6v-1.5a.75.75 0 0 1-.75-.75v-3c0-.412.338-.75.75-.75h5.25V.75c0-.412.338-.75.75-.75M9 13.5a.75.75 0 0 1 .75-.75h4.5a.75.75 0 1 1 0 1.5h-4.5A.75.75 0 0 1 9 13.5m.75 2.25a.75.75 0 1 0 0 1.5h4.5a.75.75 0 1 0 0-1.5zM9 19.5a.75.75 0 0 1 .75-.75h4.5a.75.75 0 1 1 0 1.5h-4.5A.75.75 0 0 1 9 19.5" clip-rule="evenodd"/></svg>
